icons/fight.svg

<svg width="24" height="24" viewBox="0 0 24 24" fill="none" xmlns="http://www.w3.org/2000/svg">
<path fill-rule="evenodd" clip-rule="evenodd" d="M16 4C16 2.89543 16.8954 2 18 2C19.1046 2 20 2.89543 20 4C20 5.10457 19.1046 6 18 6C16.8954 6 16 5.10457 16 4ZM7.10557 4.05279C7.35256 3.55881 7.95324 3.35858 8.44721 3.60557L12.349 5.55648L16.2425 6.52986C16.3965 6.56835 16.5391 6.64292 16.6585 6.74742L20.6585 10.2474C21.0166 10.5608 21.1043 11.083 20.8682 11.4961L18.8682 14.9961C18.5942 15.4757 17.9834 15.6423 17.5039 15.3682C17.0243 15.0942 16.8577 14.4834 17.1318 14.0039L18.726 11.214L16.2805 9.07416L14 13.255V21C14 21.5523 13.5523 22 13 22C12.4477 22 12 21.5523 12 21V13C12 12.8327 12.042 12.668 12.1221 12.5211L14.5028 8.15648L11.7575 7.47014C11.6867 7.45245 11.618 7.42706 11.5528 7.39443L7.55279 5.39443C7.05881 5.14744 6.85858 4.54676 7.10557 4.05279ZM2.02381 8.78307C2.14362 8.24394 2.6778 7.90401 3.21693 8.02381L7.71693 9.02381C7.87258 9.0584 8.0177 9.12971 8.14018 9.23178L11.1402 11.7318C11.5645 12.0853 11.6218 12.7159 11.2682 13.1402C10.9147 13.5645 10.2841 13.6218 9.85982 13.2682L7.04621 10.9236L2.78307 9.97619C2.24394 9.85638 1.90401 9.3222 2.02381 8.78307Z" fill="black"/>
</svg>

<svg
  width="24"
  height="24"
  viewBox="0 0 24 24"
  xmlns="http://www.w3.org/2000/svg"
>
  <path
    fill-rule="evenodd"
    clip-rule="evenodd"
    d="M16 4a2 2 0 1 1 4 0 2 2 0 0 1-4 0zm-8.894.053a1 1 0 0 1 1.341-.447l3.902 1.95 3.893.974a1 1 0 0 1 .416.217l4 3.5a1 1 0 0 1 .21 1.25l-2 3.5a1 1 0 1 1-1.736-.993l1.594-2.79-2.445-2.14L14 13.255V21a1 1 0 1 1-2 0v-8a1 1 0 0 1 .122-.479l2.38-4.365-2.745-.686a.998.998 0 0 1-.204-.076l-4-2a1 1 0 0 1-.447-1.341zm-5.082 4.73a1 1 0 0 1 1.193-.76l4.5 1a1 1 0 0 1 .423.209l3 2.5a1 1 0 1 1-1.28 1.536l-2.814-2.344-4.263-.948a1 1 0 0 1-.76-1.193z"
  />
</svg>
